X: 184
T:Nancy's Caller
M:4/4
L:1/8
S:Jim Nelson, (Manawa, WI  USA)
R:Hornpipe
K:D
||:(3ABc|dcde f2 a2|gfed cBA2|dcde f2 a2|gfed e2 (3ABc |
dcde f2 a2|gfed cBA2|abaf gfed|1cABc d2 :|2cABc d4||
||:fg|a2 fg a2 fg|abag f2 ef|g2 ef g2 ef|gagf e2 fg|
a2 fg a2 fg|abag f2 g2|abaf gfed|1cABc d2 :|2cABc d4||
